icon/ir/settings.svg

<svg stroke-width="1.5" viewBox="0 0 24 24" fill="none" xmlns="http://www.w3.org/2000/svg" height="1em" width="1em">
  <path d="M12 15C13.6569 15 15 13.6569 15 12C15 10.3431 13.6569 9 12 9C10.3431 9 9 10.3431 9 12C9 13.6569 10.3431 15 12 15Z" stroke="currentColor" stroke-linecap="round" stroke-linejoin="round"/>
  <path d="M19.6224 10.3954L18.5247 7.7448L20 6L18 4L16.2647 5.48295L13.5578 4.36974L12.9353 2H10.981L10.3491 4.40113L7.70441 5.51596L6 4L4 6L5.45337 7.78885L4.3725 10.4463L2 11V13L4.40111 13.6555L5.51575 16.2997L4 18L6 20L7.79116 18.5403L10.397 19.6123L11 22H13L13.6045 19.6132L16.2551 18.5155C16.6969 18.8313 18 20 18 20L20 18L18.5159 16.2494L19.6139 13.598L21.9999 12.9772L22 11L19.6224 10.3954Z" stroke="currentColor" stroke-linecap="round" stroke-linejoin="round"/>
</svg>

<svg width="24" height="24" stroke-width="1.5" fill="none" xmlns="http://www.w3.org/2000/svg"><path d="M12 15a3 3 0 1 0 0-6 3 3 0 0 0 0 6Z" stroke="currentColor" stroke-linecap="round" stroke-linejoin="round"/><path d="m19.622 10.395-1.097-2.65L20 6l-2-2-1.735 1.483-2.707-1.113L12.935 2h-1.954l-.632 2.401-2.645 1.115L6 4 4 6l1.453 1.789-1.08 2.657L2 11v2l2.401.655L5.516 16.3 4 18l2 2 1.791-1.46 2.606 1.072L11 22h2l.604-2.387 2.651-1.098C16.697 18.831 18 20 18 20l2-2-1.484-1.75 1.098-2.652 2.386-.62V11l-2.378-.605Z" stroke="currentColor" stroke-linecap="round" stroke-linejoin="round"/></svg>
